iED/img/icon/clock.svg

<svg xmlns="http://www.w3.org/2000/svg" viewBox="0 0 18 18"><path fill="#A8201A" d="M9 .1c4.9 0 8.9 4 8.9 8.9s-4 8.9-8.9 8.9S.1 13.9.1 9 4.1.1 9 .1zm0 1C4.7 1.1 1.1 4.7 1.1 9s3.5 7.9 7.9 7.9 7.9-3.5 7.9-7.9S13.3 1.1 9 1.1zm0 1.1c3.8 0 6.8 3.1 6.8 6.8 0 3.8-3.1 6.8-6.8 6.8-3.8 0-6.8-3.1-6.8-6.8 0-3.8 3-6.8 6.8-6.8zm0 1C5.8 3.2 3.2 5.8 3.2 9s2.6 5.8 5.8 5.8 5.8-2.6 5.8-5.8S12.2 3.2 9 3.2zm.5 9.5v1h-1v-1h1zm2.5-1.5l.7.7-.7.8-.8-.7.8-.8zm-6 0l.8.8-.8.7-.7-.7.7-.8zm3.5-4.8v2.4l1.4 1.4-.7.7-1.7-1.7V6.4h1zM5.3 8.5v1h-1v-1h1zm8.4 0v1h-1v-1h1zM6 5.3l.8.7-.8.8-.7-.8.7-.7zm6 0l.7.7-.7.8-.8-.8.8-.7zm-2.5-1v1h-1v-1h1z"/></svg>

<?xml version="1.0" encoding="utf-8"?>
<!-- Generator: Adobe Illustrator 23.0.0, SVG Export Plug-In . SVG Version: 6.00 Build 0)  -->
<svg version="1.1" id="Шар_1" xmlns="http://www.w3.org/2000/svg" xmlns:xlink="http://www.w3.org/1999/xlink" x="0px" y="0px"
	 viewBox="0 0 18 18" style="enable-background:new 0 0 18 18;" xml:space="preserve">
<path fill="#A8201A" d="M9,0.1c4.9,0,8.9,4,8.9,8.9c0,4.9-4,8.9-8.9,8.9c-4.9,0-8.9-4-8.9-8.9C0.1,4.1,4.1,0.1,9,0.1z M9,1.1C4.7,1.1,1.1,4.7,1.1,9
	s3.5,7.9,7.9,7.9s7.9-3.5,7.9-7.9S13.3,1.1,9,1.1z M9,2.2c3.8,0,6.8,3.1,6.8,6.8c0,3.8-3.1,6.8-6.8,6.8c-3.8,0-6.8-3.1-6.8-6.8
	C2.2,5.2,5.2,2.2,9,2.2z M9,3.2C5.8,3.2,3.2,5.8,3.2,9s2.6,5.8,5.8,5.8s5.8-2.6,5.8-5.8S12.2,3.2,9,3.2z M9.5,12.7v1h-1v-1H9.5z
	 M12,11.2l0.7,0.7L12,12.7L11.2,12L12,11.2z M6,11.2L6.8,12L6,12.7L5.3,12L6,11.2z M9.5,6.4v2.4l1.4,1.4l-0.7,0.7L8.5,9.2V6.4H9.5z
	 M5.3,8.5v1h-1v-1H5.3z M13.7,8.5v1h-1v-1H13.7z M6,5.3L6.8,6L6,6.8L5.3,6L6,5.3z M12,5.3L12.7,6L12,6.8L11.2,6L12,5.3z M9.5,4.3v1
	h-1v-1H9.5z"/>
</svg>
